resources/svg/chapter-add.svg

<svg viewBox="0 0 24 24"><path fill="none" stroke="currentColor" stroke-width="2" d="M5 14V5h14v15h-8m8-4h4V1H9v4M5 16v8m4-4H1"/></svg>

<svg xmlns="http://www.w3.org/2000/svg" viewBox="0 0 24 24" fill="currentColor"><path fill="none" stroke="currentColor" stroke-width="2" d="M5,14 L5,5 L19,5 L19,20 L11,20 M19,16 L23,16 L23,1 L9,1 L9,5 M5,16 L5,24 M9,20 L1,20"/></svg>
